X: 295
T:Come Under My Plaidy. JaW.294
M:6/8
L:1/8
Q:120
S:James Winder Ms, Lancashire, 1835-41
R:Jig
O:England
A:Wyresdale,Lancashire
H:1/8
Z:vmp.Chris Partington, Aug 2004
K:G
g|dBB BAB|dBB B2g|dBB BAB|GEE E2g|!
dBB BAB|dBB BAG|AAA BAB|GEE E2:|!
|:d|gfg aga|bag fed|gfg aga|bge e2g/a/|!
bgb afa|geg dBG|AAA BAB|GEE E2:|]
